img/img_desktop/fb.svg

<svg width="47" height="46" viewBox="0 0 47 46" fill="none" xmlns="http://www.w3.org/2000/svg">
<path d="M23.4915 0.0908203C11.0074 0.0908203 0.793213 10.3233 0.793213 22.9259C0.793213 34.3206 9.10078 43.7782 19.9506 45.4874V29.5348H14.1852V22.9259H19.9506V17.8894C19.9506 12.1692 23.3326 9.02429 28.5305 9.02429C31.0046 9.02429 33.5922 9.45729 33.5922 9.45729V15.0863H30.7322C27.9176 15.0863 27.0324 16.8411 27.0324 18.6414V22.9259H33.3425L32.3211 29.5348H27.0324V45.4874C32.3811 44.6393 37.2516 41.8993 40.7647 37.7619C44.2778 33.6246 46.2019 28.3626 46.1898 22.9259C46.1898 10.3233 35.9755 0.0908203 23.4915 0.0908203Z" fill="#CACACA"/>
</svg>

<svg width="47" height="46" fill="none" xmlns="http://www.w3.org/2000/svg"><path d="M23.491.09C11.007.09.793 10.324.793 22.927c0 11.395 8.308 20.852 19.158 22.561V29.535h-5.766v-6.61h5.766V17.89c0-5.72 3.382-8.865 8.58-8.865 2.474 0 5.061.433 5.061.433v5.63h-2.86c-2.814 0-3.7 1.754-3.7 3.554v4.285h6.31l-1.02 6.609h-5.29v15.952a22.675 22.675 0 0013.733-7.725 22.844 22.844 0 005.425-14.836C46.19 10.323 35.975.09 23.492.09z" fill="#CACACA"/></svg>
